frontend/src/assets/figma/downloaded/topbar-logo-fill.svg

<svg preserveAspectRatio="none" width="100%" height="100%" overflow="visible" style="display: block;" viewBox="0 0 60.8986 16.1297" fill="none" xmlns="http://www.w3.org/2000/svg">
<g id="Group">
<path id="Vector" d="M14.7277 12.0587C14.0714 9.70696 12.6747 7.66829 10.8038 6.21465C11.2964 5.60497 11.7245 4.94185 12.0814 4.23695C12.4828 3.44368 12.7055 2.76344 12.8151 2.39694C12.9953 1.79205 13.1802 0.977547 13.2467 0C8.83161 0.00411022 4.41655 0.00890547 0.000120661 0.0130157C0.000120661 5.35219 0.00217577 10.6914 0.00217577 16.0298H15.1004C15.1257 15.7209 15.1394 15.4071 15.1394 15.0907C15.1394 14.0398 14.9956 13.0232 14.727 12.0587H14.7284H14.7277ZM3.95415 12.0587V4.23695H7.18341C7.15601 4.26503 7.12792 4.29244 7.09915 4.31915C6.70868 4.70072 6.27368 5.03776 5.80512 5.31999V9.75491C6.44426 9.53159 7.05736 9.25004 7.6369 8.91849C8.8638 9.65353 9.853 10.7482 10.4599 12.0587H3.95415Z" fill="var(--fill-0, #EBEBEB)"/>
<path id="Vector_2" d="M60.8986 13.9795C60.891 14.294 60.8739 14.6276 60.8431 14.9776C60.8088 15.3599 60.7622 15.7202 60.7081 16.0559H56.7164C56.7575 15.86 56.7945 15.6531 56.8253 15.4345C56.8432 15.3078 56.8582 15.1838 56.8699 15.0639C56.8699 15.0639 56.935 14.4865 56.935 13.9795C56.935 9.72272 54.575 5.84678 51.0067 4.2575V16.0559H47.0615V0H50.7635C56.0033 1.12277 58.9538 6.10915 59.9169 8.61638C60.0286 8.90752 60.3588 10.0673 60.6307 11.4956C60.7348 12.0422 60.8609 12.7013 60.891 13.548C60.8972 13.7288 60.8986 13.8781 60.8979 13.9802L60.8986 13.9795Z" fill="var(--fill-0, #EBEBEB)"/>
<path id="Vector_3" d="M29.3199 0.00137007C28.9726 0.37814 28.7253 0.732304 28.5547 1.007C28.4307 1.20703 28.2451 1.50982 28.0779 1.93934C27.9053 2.38324 27.8423 2.72987 27.782 3.06074C27.6265 3.91978 27.6567 4.58015 27.6738 4.8343C27.6841 4.99117 27.6984 5.11927 27.7094 5.20559H24.8172C24.8672 4.76374 24.922 4.35683 24.9802 3.90402H21.3776V16.0312H17.4003V1.60093H17.4017V0H26.3092L29.3199 0.00137007Z" fill="var(--fill-0, #EBEBEB)"/>
<path id="Vector_4" d="M35.4552 0C35.7155 2.79769 37.574 5.13229 40.108 6.08038V0.0123306H44.0668V11.6716L44.0949 11.6579V15.3777L43.8428 15.4661C43.653 15.5325 43.4599 15.5955 43.2619 15.6538C43.0255 15.725 42.7892 15.786 42.5536 15.8401C42.0069 15.9654 41.4589 16.0483 40.9143 16.0922C40.6437 16.1141 40.3738 16.1271 40.1039 16.1292C40.0326 16.1299 39.9614 16.1299 39.8908 16.1292C39.847 16.1292 39.7935 16.1292 39.7387 16.1264C38.7427 16.1052 37.7645 15.9524 36.8253 15.6825C36.7732 15.6681 36.7212 15.6531 36.6664 15.6353C36.5156 15.5914 36.369 15.5428 36.2286 15.4941H36.2273L36.2259 15.4928C36.1396 15.4619 36.0533 15.4311 35.9656 15.3989C35.5018 15.227 35.0579 15.0153 34.7325 14.8488C34.5695 14.7653 34.4345 14.692 34.34 14.6392C34.2927 14.6132 34.2557 14.592 34.2297 14.5769C34.2167 14.5693 34.2071 14.5639 34.2002 14.5598C34.1968 14.5577 34.1941 14.5563 34.192 14.555C34.1913 14.555 34.1906 14.5543 34.19 14.5536L34.1016 14.5015C33.1919 13.9597 32.4972 13.3685 32.0698 12.9698L31.732 12.6554L32.1081 12.3875C32.4678 12.1313 32.8384 11.8552 33.2151 11.5572L33.3419 11.4565C33.6351 11.2223 33.9139 10.9893 34.1783 10.7592L34.4222 10.5475L34.6688 10.7558C35.2511 11.2483 35.9498 11.7148 36.7808 12.0738L36.8616 12.108C36.9493 12.145 37.0383 12.1799 37.1301 12.2149H37.1336L37.1541 12.2231C37.25 12.2594 37.3487 12.2937 37.4514 12.3272C37.4761 12.3354 37.4966 12.3416 37.5165 12.3485L37.5761 12.367L37.5822 12.3683L37.5877 12.3704L37.648 12.3896C37.6884 12.4019 37.7295 12.4142 37.7706 12.4252L37.833 12.4423H37.835L37.8371 12.4437C37.994 12.4875 38.1515 12.5266 38.3098 12.5595L38.3776 12.5732H38.3783H38.3789C38.8318 12.6649 39.2942 12.7197 39.762 12.7328C39.8771 12.7355 39.9929 12.7362 40.1093 12.7348V10.244C35.3511 9.15003 31.7519 5.02063 31.4519 0H35.4545H35.4552Z" fill="var(--fill-0, #EBEBEB)"/>
</g>
</svg>

<svg xmlns="http://www.w3.org/2000/svg" fill="none" overflow="visible" preserveAspectRatio="none" style="display:block" viewBox="0 0 60.899 16.13"><path fill="var(--fill-0, #ebebeb)" d="M14.728 12.059a11.23 11.23 0 0 0-3.924-5.844 11.2 11.2 0 0 0 2.011-3.818c.18-.605.365-1.42.432-2.397L0 .013.002 16.03H15.1q.04-.465.04-.94c0-1.05-.144-2.067-.413-3.031zm-10.774 0V4.237h3.23l-.085.082c-.39.382-.825.719-1.294 1.001v4.435c.64-.223 1.252-.505 1.832-.837a7.2 7.2 0 0 1 2.823 3.14zm56.945 1.921q-.01.472-.056.998-.052.573-.135 1.078h-3.992a9 9 0 0 0 .154-.992s.065-.578.065-1.085c0-4.256-2.36-8.132-5.928-9.721v11.798h-3.945V0h3.702c5.24 1.123 8.19 6.11 9.153 8.616.112.292.442 1.451.714 2.88.104.546.23 1.205.26 2.052.006.18.008.33.007.432M29.32.001a6.7 6.7 0 0 0-.765 1.006c-.124.2-.31.503-.477.932-.173.444-.236.79-.296 1.122a7.3 7.3 0 0 0-.108 1.773c.01.157.024.285.035.372h-2.892c.05-.442.105-.85.163-1.302h-3.602v12.127H17.4V1.601h.002V0h8.907zM35.455 0a7.22 7.22 0 0 0 4.653 6.08V.012h3.959v11.66l.028-.014v3.72l-.252.088a12 12 0 0 1-1.29.374 11.5 11.5 0 0 1-2.662.29q-.068.001-.152-.004a11.4 11.4 0 0 1-3.51-.632h-.002l-.001-.001-.26-.094a12 12 0 0 1-1.626-.76l-.11-.062-.03-.017-.008-.005-.002-.001-.088-.053a12 12 0 0 1-2.032-1.531l-.338-.315.376-.268q.54-.384 1.107-.83l.127-.1q.44-.353.836-.698l.244-.212.247.209a8.5 8.5 0 0 0 2.112 1.318l.08.034q.131.055.27.107h.003l.02.008q.144.053.297.104l.066.021.06.019.005.001.006.002.06.02.123.035.062.017h.002l.002.002q.235.066.473.115l.068.014a8 8 0 0 0 1.731.162v-2.491A11.21 11.21 0 0 1 31.452 0z"/></svg>
